X: 12509
T: Farewell To Gurteen
R: jig
M: 6/8
K: Dmajor
|:F2E FDD|Dfd ecA|FEF DEF|~G3 BAG|
F2E FDD|Dfd ecA|~f3 gec|Adc d2A:|
|:dcd ~f3|dfa afd|dfa dfa|e=ce gfe|
dcd fef|dfa afd|~A3 GFE|1 FDC D2A:|2 FDC D2E||

